X: 270
T: The glens of Mayo
C: anon.
O: Ireland
B: Francis O'Neill: "The Dance Music of Ireland" (1907) no. 270
R: Double jig
Z: Transcribed by Frank Nordberg - http://www.musicaviva.com
F: http://www.musicaviva.com/abc/tunes/ireland/oneill-1001/oneill-1001-027
0.abc
M: 6/8
L: 1/8
K: Em
e|dBG AGE|GAB c2e|dBG BAG|ABd e2g|dBG AGE|GBd gfe|dBG AGE|GAG G2:|
||B|BcB Beg|fed e2g|fed dBA|Ad^c d2B|BcB Bef|gab a2(b/a/)|gfe dBA|GEE E2:
|
W:
W:
W: From Musica Viva - http://www.musicaviva.com
W: the Internet center for free sheet music downloads.


